image/02/Associates/Aon.svg

<svg xmlns="http://www.w3.org/2000/svg" fill="none" viewBox="0 0 103 48" height="48" width="103">
<path fill="black" d="M52.0933 10.3802C57.0271 10.0136 61.2758 11.6051 64.7279 15.1624C67.6975 18.2171 69.1653 21.9399 69.1591 26.1978C69.1452 34.8606 62.179 41.9582 52.6315 42C49.0077 41.8948 45.2431 40.3868 42.1885 37.275C39.1076 34.1322 37.5624 30.3212 37.6259 25.9039C37.6877 21.6228 39.27 17.951 42.2767 14.9304C44.9848 12.2114 48.2715 10.6663 52.0933 10.3802ZM53.4265 17.0169C50.9379 16.9983 48.7633 17.8923 47.0017 19.6632C44.9385 21.7357 44.029 24.2722 44.3445 27.1892C44.5471 29.2076 45.4458 31.0914 46.8841 32.5159C48.9195 34.5652 51.388 35.5133 54.2725 35.2504C58.6016 34.8544 62.5409 31.1007 62.4713 26.8752C62.4713 23.6195 61.5774 21.4759 59.8328 19.708C58.0897 17.9402 55.9166 17.037 53.4265 17.0169Z" clip-rule="evenodd" fill-rule="evenodd"></path>
<path fill="black" d="M24.6015 6.00002C24.8242 6.00002 24.9139 6.07737 24.999 6.27069C27.3947 11.8278 29.7951 17.385 32.1986 22.939C34.7939 28.9447 37.3908 34.9534 39.9861 40.9637C40.0154 41.0457 40.0495 41.1292 40.0959 41.2421H33.0617C32.9163 41.2638 32.7755 41.1756 32.7338 41.0333C30.9613 36.7429 29.1827 32.454 27.4009 28.1683C26.9447 27.0748 26.476 25.9828 26.0167 24.8862C25.5913 23.8732 25.1706 22.8617 24.7515 21.8486C23.8823 19.7343 23.0115 17.6185 22.1438 15.5027C22.1144 15.4362 22.0773 15.3728 22.0216 15.2676C20.1224 19.8581 18.2385 24.396 16.3392 28.971H23.7292C23.8854 28.9478 24.0323 29.0452 24.0741 29.1983C24.9031 31.1131 25.7383 33.0248 26.5781 34.9364C26.6106 35.0107 26.6384 35.088 26.6833 35.2009H26.3647C22.2614 35.2009 18.155 35.1994 14.0455 35.1947C13.8043 35.1947 13.7176 35.2829 13.6357 35.4793C12.8732 37.3322 12.1029 39.1805 11.3404 41.0302C11.2848 41.1648 11.2368 41.2468 11.0651 41.2468C8.74514 41.239 6.42361 41.239 4.10363 41.2468C4.07888 41.2468 4.05413 41.2468 4 41.2375C4.01856 41.1664 4.04331 41.0967 4.0696 41.0272C6.45145 35.518 8.8333 30.0088 11.2167 24.4996C13.8429 18.4259 16.4676 12.3475 19.0907 6.26605C19.1758 6.06964 19.2701 5.99848 19.4898 6.00002C21.1911 6.01085 22.8955 6.01085 24.6015 6.00002Z"></path>
<path fill="black" d="M77.3626 11.0499C77.5126 11.0375 77.658 11.1055 77.7461 11.2277C82.4232 17.0571 87.1019 22.8833 91.7851 28.7096C91.8315 28.7668 91.881 28.8209 91.9754 28.9277V11.0653H98.6291V41.2421H93.621C93.4818 41.253 93.3457 41.1896 93.2653 41.0751C89.7358 36.6811 86.2048 32.2885 82.6738 27.8976C81.2864 26.1715 79.896 24.4454 78.5009 22.7225L78.4499 22.6761L78.4483 22.7441C78.4483 23.021 78.4421 23.2978 78.4421 23.5731V41.2251H71.7884V11.0591C71.8688 11.0591 71.9493 11.0499 72.0297 11.0499H77.3626Z"></path>
</svg>

<?xml version="1.0" encoding="utf-8"?>
<!-- Generator: Adobe Illustrator 23.0.6, SVG Export Plug-In . SVG Version: 6.00 Build 0)  -->
<svg version="1.1" id="Layer_1" xmlns="http://www.w3.org/2000/svg" xmlns:xlink="http://www.w3.org/1999/xlink" x="0px" y="0px"
	 viewBox="0 0 103 48" style="enable-background:new 0 0 103 48;" xml:space="preserve">
<style type="text/css">
	.st0{fill-rule:evenodd;clip-rule:evenodd;fill:#FFFFFF;}
	.st1{fill:#FFFFFF;}
</style>
<path class="st0" d="M52.1,10.4c4.9-0.4,9.2,1.2,12.6,4.8c3,3.1,4.4,6.8,4.4,11c0,8.7-7,15.8-16.5,15.8c-3.6-0.1-7.4-1.6-10.4-4.7
	c-3.1-3.1-4.6-7-4.6-11.4c0.1-4.3,1.6-8,4.7-11C45,12.2,48.3,10.7,52.1,10.4z M53.4,17c-2.5,0-4.7,0.9-6.4,2.6
	c-2.1,2.1-3,4.6-2.7,7.5c0.2,2,1.1,3.9,2.5,5.3c2,2,4.5,3,7.4,2.7c4.3-0.4,8.3-4.1,8.2-8.4c0-3.3-0.9-5.4-2.6-7.2
	C58.1,17.9,55.9,17,53.4,17z"/>
<path class="st1" d="M24.6,6c0.2,0,0.3,0.1,0.4,0.3c2.4,5.6,4.8,11.1,7.2,16.7c2.6,6,5.2,12,7.8,18c0,0.1,0.1,0.2,0.1,0.3h-7
	c-0.1,0-0.3-0.1-0.3-0.2c-1.8-4.3-3.6-8.6-5.3-12.9c-0.5-1.1-0.9-2.2-1.4-3.3c-0.4-1-0.8-2-1.3-3c-0.9-2.1-1.7-4.2-2.6-6.3
	c0-0.1-0.1-0.1-0.1-0.2c-1.9,4.6-3.8,9.1-5.7,13.7h7.4c0.2,0,0.3,0.1,0.3,0.2c0.8,1.9,1.7,3.8,2.5,5.7c0,0.1,0.1,0.2,0.1,0.3h-0.3
	c-4.1,0-8.2,0-12.3,0c-0.2,0-0.3,0.1-0.4,0.3c-0.8,1.9-1.5,3.7-2.3,5.6c-0.1,0.1-0.1,0.2-0.3,0.2c-2.3,0-4.6,0-7,0c0,0,0,0-0.1,0
	c0-0.1,0-0.1,0.1-0.2c2.4-5.5,4.8-11,7.1-16.5c2.6-6.1,5.3-12.2,7.9-18.2C19.2,6.1,19.3,6,19.5,6C21.2,6,22.9,6,24.6,6z"/>
<path class="st1" d="M77.4,11c0.2,0,0.3,0.1,0.4,0.2c4.7,5.8,9.4,11.7,14,17.5c0,0.1,0.1,0.1,0.2,0.2V11.1h6.7v30.2h-5
	c-0.1,0-0.3-0.1-0.4-0.2c-3.5-4.4-7.1-8.8-10.6-13.2c-1.4-1.7-2.8-3.5-4.2-5.2l-0.1,0l0,0.1c0,0.3,0,0.6,0,0.8v17.7h-6.7V11.1
	c0.1,0,0.2,0,0.2,0H77.4z"/>
</svg>
